dist/assets/images/card/icon-11.svg

<svg width="131" height="87" viewBox="0 0 131 87" fill="none" xmlns="http://www.w3.org/2000/svg">
<path d="M129.888 1H1V85.586H129.888V1Z" stroke="#DE1F26" stroke-miterlimit="10"/>
<path fill-rule="evenodd" clip-rule="evenodd" d="M83.4279 54.908L81.7969 53.24L79.7289 51.13L79.1669 50.521L77.3759 52.212L77.9439 52.785L75.6669 54.98L75.1369 54.416L74.6549 54.88L73.9089 55.615L73.209 56.277L73.7399 56.845L71.5249 59.123L70.9319 58.472L68.8669 60.507L69.4609 61.158L73.1279 64.89L78.9149 59.265L83.4279 54.908Z" fill="#DF0112" stroke="#0000BD" stroke-miterlimit="22.9256"/>
<path fill-rule="evenodd" clip-rule="evenodd" d="M53.252 30.2781L53.2059 30.2091L52.6289 30.7701L50.3569 28.5801L50.9609 27.9371L48.9719 25.9021L48.0899 26.7671L45.4139 29.4021L44.5959 30.1841L49.0899 34.7601L54.6209 40.3911L58.1469 36.9311L58.9969 36.1081L58.528 35.6721L57.2729 34.3811L56.7289 34.9021L54.4829 32.6331L55.0629 32.1091L54.1549 31.1551L53.252 30.2781Z" fill="#DF0112" stroke="#0000BD" stroke-miterlimit="22.9256"/>
<path d="M67.4789 34.6322L67.1949 32.6172L65.4839 34.2942L67.4789 34.6322Z" stroke="#DF0112" stroke-width="0.4799" stroke-miterlimit="10"/>
<path d="M58.7671 25.7581L66.3781 33.554" stroke="#DF0112" stroke-width="0.4799"/>
<path d="M58.6719 62.4882L58.9549 60.4722L60.6659 62.1502L58.6719 62.4882Z" stroke="#DF0112" stroke-width="0.4799" stroke-miterlimit="10"/>
<path d="M67.384 53.613L59.772 61.41" stroke="#DF0112" stroke-width="0.4799"/>
<path d="M41 13V20L48 27M58 37L65 44L41 68L41 73M80.5 52L89 44L65 20.5V13" stroke="#0000BD"/>
<path d="M70.5 62.5L64.5 68V73" stroke="#0000BD"/>
</svg>

<svg width="131" height="87" fill="none" xmlns="http://www.w3.org/2000/svg"><path d="M129.888 1H1v84.586h128.888V1z" stroke="#DE1F26" stroke-miterlimit="10"/><path fill-rule="evenodd" clip-rule="evenodd" d="M83.428 54.908l-1.631-1.668-2.068-2.11-.562-.609-1.791 1.691.568.573-2.277 2.195-.53-.564-.482.464-.746.735-.7.662.53.568-2.214 2.278-.593-.651-2.065 2.035.594.651 3.667 3.732 5.787-5.625 4.513-4.357zm-30.176-24.63l-.046-.069-.577.561-2.272-2.19.604-.643-1.99-2.035-.881.865-2.676 2.635-.818.782 4.494 4.576 5.53 5.631 3.527-3.46.85-.823-.469-.436-1.255-1.29-.544.52-2.246-2.269.58-.524-.908-.954-.903-.877z" fill="#DF0112" stroke="#0000BD" stroke-miterlimit="22.926"/><path d="M67.479 34.632l-.284-2.015-1.711 1.677 1.995.338z" stroke="#DF0112" stroke-width=".48" stroke-miterlimit="10"/><path d="M58.767 25.758l7.611 7.796" stroke="#DF0112" stroke-width=".48"/><path d="M58.672 62.488l.283-2.016 1.71 1.678-1.993.338z" stroke="#DF0112" stroke-width=".48" stroke-miterlimit="10"/><path d="M67.384 53.613l-7.612 7.797" stroke="#DF0112" stroke-width=".48"/><path d="M41 13v7l7 7m10 10l7 7-24 24v5m39.5-21l8.5-8-24-23.5V13m5.5 49.5l-6 5.5v5" stroke="#0000BD"/></svg>
